X: 21684
Q: "Reel."
M: C
L: 1/8
K: G
c |\
=f |\
e/f/g dg cgBg | A=ffc AFFf |
e/f/g dg cgBg | A=fgd BGG=f |\
e/f/g dg cgBg | A=ffc AFFf |\
ge=fd ecdB | Agfa gGG |]



